SVG_Azure_Grouped/Application/Event Hub Scale.svg

<?xml version="1.0" encoding="UTF-8" standalone="no"?>
<!-- Generated by Microsoft Visio, SVG Export Event Hub Scale.svg Page-1 -->

<svg
   xmlns:dc="http://purl.org/dc/elements/1.1/"
   xmlns:cc="http://creativecommons.org/ns#"
   xmlns:rdf="http://www.w3.org/1999/02/22-rdf-syntax-ns#"
   xmlns:svg="http://www.w3.org/2000/svg"
   xmlns="http://www.w3.org/2000/svg"
   xmlns:sodipodi="http://sodipodi.sourceforge.net/DTD/sodipodi-0.dtd"
   xmlns:inkscape="http://www.inkscape.org/namespaces/inkscape"
   width="0.78744096in"
   height="0.7874828in"
   viewBox="0 0 56.695657 56.698744"
   xml:space="preserve"
   class="st3"
   version="1.1"
   id="svg30"
   sodipodi:docname="Event Hub Scale.svg"
   style="font-size:12px;overflow:visible;color-interpolation-filters:sRGB;fill:none;fill-rule:evenodd;stroke-linecap:square;stroke-miterlimit:3"
   inkscape:version="0.92.5 (2060ec1f9f, 2020-04-08)"><metadata
   id="metadata34"><rdf:RDF><cc:Work
       rdf:about=""><dc:format>image/svg+xml</dc:format><dc:type
         rdf:resource="http://purl.org/dc/dcmitype/StillImage" /></cc:Work></rdf:RDF></metadata><sodipodi:namedview
   pagecolor="#ffffff"
   bordercolor="#666666"
   borderopacity="1"
   objecttolerance="10"
   gridtolerance="10"
   guidetolerance="10"
   inkscape:pageopacity="0"
   inkscape:pageshadow="2"
   inkscape:window-width="640"
   inkscape:window-height="480"
   id="namedview32"
   showgrid="false"
   inkscape:zoom="1.4193037"
   inkscape:cx="37.795379"
   inkscape:cy="37.786418"
   inkscape:window-x="0"
   inkscape:window-y="0"
   inkscape:window-maximized="0"
   inkscape:current-layer="svg30" />
	<style
   type="text/css"
   id="style2">
	<![CDATA[
		.st1 {fill:url(#grad0-6);stroke:none;stroke-linecap:butt;stroke-width:34}
		.st2 {fill:#b3b3b3;stroke:none;stroke-linecap:butt;stroke-width:34}
		.st3 {fill:none;fill-rule:evenodd;font-size:12px;overflow:visible;stroke-linecap:square;stroke-miterlimit:3}
	]]>
	</style>

	<defs
   id="Patterns_And_Gradients">
		<linearGradient
   id="grad0-6"
   x1="-0.0023811887"
   y1="83.90607"
   x2="39.884241"
   y2="83.90607"
   gradientTransform="scale(0.9926228,1.007432)"
   gradientUnits="userSpaceOnUse">
			<stop
   offset="0"
   stop-color="#6bb9f2"
   stop-opacity="1"
   id="stop4" />
			<stop
   offset="1"
   stop-color="#1b93eb"
   stop-opacity="1"
   id="stop6" />
		</linearGradient>
	</defs>
	<g
   id="g28"
   transform="translate(-34.000056,-33.995562)">
		<title
   id="title10">Page-1</title>
		<g
   id="group14037-1"
   transform="translate(34,-34.0157)">
			<title
   id="title12">Event Hub Scale.14037</title>
			<g
   id="group14038-2">
				<title
   id="title14">MsPortalFx.base.images-66</title>
				<g
   id="shape14039-3"
   transform="translate(17.1057,-16.5184)">
					<title
   id="title16">Sheet.14039</title>
					<path
   d="M 39.59,105.51 V 85.26 A 0.716384,0.727003 -180 0 0 38.873616,84.529662 L 18.92,84.53 a 0.716384,0.727003 -180 0 0 -0.509356,1.24391 L 23.91,91.36 l 0.36,0.37 a 0.71967,0.730338 0 0 1 0,1.03048 L 0.21,117.17 a 0.713098,0.723668 -180 0 0 0,1.03048 L 6.41,124.5 a 0.71967,0.730338 -180 0 0 1.01542,0 L 31.48,100.08 a 0.716384,0.727003 0 0 1 1.01871,0 l 0.37129,0.37 5.49,5.58 a 0.716384,0.727003 -180 0 0 1.22574,-0.51357 z"
   class="st1"
   id="path18"
   inkscape:connector-curvature="0"
   style="fill:url(#grad0-6);stroke:none;stroke-width:34;stroke-linecap:butt" />
				</g>
				<g
   id="shape14040-7">
					<title
   id="title21">Sheet.14040</title>
					<path
   d="m 42.04,102.76 v 14.82 a 1.67923,1.70412 0 0 1 -1.68,1.71 H 7.02 A 1.67594,1.70079 0 0 1 5.34,117.58 V 85.64 a 1.67594,1.70079 0 0 1 1.68,-1.7 h 16.71 a 0.920126,0.933766 -180 0 0 0.920126,-0.933766 L 24.65,79.45 A 0.920126,0.933766 -180 0 0 23.729874,78.516234 L 1.68,78.51 A 1.67594,1.70079 -180 0 0 0,80.22 V 123 a 1.67594,1.70079 -180 0 0 1.68,1.71 H 45.71 A 1.67923,1.70412 -180 0 0 47.39,123 v -20.24 a 0.920126,0.933766 -180 0 0 -0.920126,-0.93377 L 42.96,101.83 a 0.920126,0.933766 -180 0 0 -0.920126,0.93377 z"
   class="st2"
   id="path23"
   inkscape:connector-curvature="0"
   style="fill:#b3b3b3;stroke:none;stroke-width:34;stroke-linecap:butt" />
				</g>
			</g>
		</g>
	</g>
</svg>

<?xml version="1.0" encoding="UTF-8" standalone="no"?>
<!DOCTYPE svg PUBLIC "-//W3C//DTD SVG 1.1//EN" "http://www.w3.org/Graphics/SVG/1.1/DTD/svg11.dtd">
<!-- Generated by Microsoft Visio, SVG Export Event Hub Scale.svg Page-1 -->
<svg xmlns="http://www.w3.org/2000/svg" xmlns:xlink="http://www.w3.org/1999/xlink" xmlns:ev="http://www.w3.org/2001/xml-events"
		width="1.73185in" height="1.73207in" viewBox="0 0 124.693 124.709" xml:space="preserve" color-interpolation-filters="sRGB"
		class="st3">
	<style type="text/css">
	<![CDATA[
		.st1 {fill:url(#grad0-6);stroke:none;stroke-linecap:butt;stroke-width:34}
		.st2 {fill:#b3b3b3;stroke:none;stroke-linecap:butt;stroke-width:34}
		.st3 {fill:none;fill-rule:evenodd;font-size:12px;overflow:visible;stroke-linecap:square;stroke-miterlimit:3}
	]]>
	</style>

	<defs id="Patterns_And_Gradients">
		<linearGradient id="grad0-6" x1="0" y1="0" x2="1" y2="0" gradientTransform="rotate(69.774439574063 0.5 0.5)">
			<stop offset="0" stop-color="#6bb9f2" stop-opacity="1"/>
			<stop offset="1" stop-color="#1b93eb" stop-opacity="1"/>
		</linearGradient>
	</defs>
	<g>
		<title>Page-1</title>
		<g id="group13690-1" transform="translate(34,-34.0157)">
			<title>Event Hub Scale.13690</title>
			<g id="group13691-2">
				<title>MsPortalFx.base.images-66</title>
				<g id="shape13692-3" transform="translate(17.1057,-16.5184)">
					<title>Sheet.13692</title>
					<path d="M39.59 105.51 L39.59 85.26 a0.716384 0.727003 -180 0 0 -0.716384 -0.730338 L18.92 84.53 a0.716384 0.727003
								 -180 0 0 -0.509356 1.24391 L23.91 91.36 L24.27 91.73 a0.71967 0.730338 0 0 1 1.77636E-14 1.03048
								 L0.21 117.17 a0.713098 0.723668 -180 0 0 -6.43929E-15 1.03048 L6.41 124.5 a0.71967 0.730338 -180
								 0 0 1.01542 0 L31.48 100.08 a0.716384 0.727003 0 0 1 1.01871 4.26326E-14 L32.87 100.45 L38.36 106.03
								 a0.716384 0.727003 -180 0 0 1.22574 -0.513571 Z" class="st1"/>
				</g>
				<g id="shape13693-7">
					<title>Sheet.13693</title>
					<path d="M42.04 102.76 L42.04 117.58 A1.67923 1.70412 0 0 1 40.36 119.29 L7.02 119.29 A1.67594 1.70079 0 0 1
								 5.34 117.58 L5.34 85.64 A1.67594 1.70079 0 0 1 7.02 83.94 L23.73 83.94 a0.920126 0.933766 -180 0
								 0 0.920126 -0.933766 L24.65 79.45 a0.920126 0.933766 -180 0 0 -0.920126 -0.933766 L1.68 78.51 A1.67594
								 1.70079 -180 0 0 0 80.22 L0 123 A1.67594 1.70079 -180 0 0 1.68 124.71 L45.71 124.71 A1.67923 1.70412
								 -180 0 0 47.39 123 L47.39 102.76 a0.920126 0.933766 -180 0 0 -0.920126 -0.933766 L42.96 101.83 a0.920126
								 0.933766 -180 0 0 -0.920126 0.933766 Z" class="st2"/>
				</g>
			</g>
		</g>
	</g>
</svg>
